X: 482
T: Wushi chuchengdong
%%abc-version 2.0
%%abcx-abcm2ps-target-version 5.9.1 (29 Sep 2008)
%%abc-creator hum2abc beta
%%abcx-conversion-date 2013/10/02 07:52:30
%%abc-edited-by Helmut Schaffrath
%%humdrum-veritas 2616903151
%%humdrum-veritas-data 1032672107
%%continueall 1
%%barnumbers 0
L: 1/8
M: 2/4
K: G
d d e B [I:setbarnb 1]| 
d ed2 | 
A d B d | 
E GA2 | 
d d e B | 
d ed2 | 
A d B d | 
E GA2 | 
d Bd2 | 
d e d B | 
d2E G | 
c2A G | 
E A G E | 
D4 |]  



